include/LD/assets/icons/custom/custom27.svg

<?xml version="1.0"?><svg xmlns="http://www.w3.org/2000/svg" width="100" height="100" viewBox="0 0 100 100"><g fill="#fff"><path d="m24 63h52c1.1 0 2-0.9 2-2v-32c0-3.3-2.7-6-6-6h-44c-3.3 0-6 2.7-6 6v32c0 1.1 0.9 2 2 2z m4-32c0-1.1 0.9-2 2-2h40c1.1 0 2 0.9 2 2v24c0 1.1-0.9 2-2 2h-40c-1.1 0-2-0.9-2-2v-24z m52 38h-22c-1.1 0-2 0.9-2 2s-0.9 2-2 2h-8c-1.1 0-2-0.9-2-2s-0.9-2-2-2h-22c-1.1 0-2 0.9-2 2 0 3.3 2.7 6 6 6h52c3.3 0 6-2.7 6-6 0-1.1-0.9-2-2-2z"></path></g></svg>

<svg xmlns="http://www.w3.org/2000/svg" x="0px" y="0px"
	 width="100px" height="100px" viewBox="0 0 100 100" enable-background="new 0 0 100 100" xml:space="preserve">
<g>
	<path fill="#FFFFFF" d="M24,63h52c1.1,0,2-0.9,2-2V29c0-3.3-2.7-6-6-6H28c-3.3,0-6,2.7-6,6v32C22,62.1,22.9,63,24,63z M28,31
		c0-1.1,0.9-2,2-2h40c1.1,0,2,0.9,2,2v24c0,1.1-0.9,2-2,2H30c-1.1,0-2-0.9-2-2V31z"/>
	<path fill="#FFFFFF" d="M80,69H58c-1.1,0-2,0.9-2,2l0,0c0,1.1-0.9,2-2,2h-8c-1.1,0-2-0.9-2-2l0,0c0-1.1-0.9-2-2-2H20
		c-1.1,0-2,0.9-2,2c0,3.3,2.7,6,6,6h52c3.3,0,6-2.7,6-6C82,69.9,81.1,69,80,69z"/>
</g>
</svg>
